X:1
T:Title
%%score 1 2 ( 3 4 ) 5
L:1/8
M:12/8
K:D
V:1 treble nm="Part_1"
V:2 treble nm="Part_2"
V:3 alto nm="Part_3"
V:4 alto 
V:5 bass nm="Part_4"
V:1
!f! d'6 e'3 a3 | f'2 z A,B,C (DCD) A,DE | (FEF) DFG (A^GA) FAc | (dcd) z3 ([DAa]3{/c'} b2) a | %4
 (a3{c'} b2) a a2 z d'2 z | c'2 z B,C^D (EDE) B,EF | (GFG) EGA (BAB) GB^d | %7
 (e^de) z3 (b3{/d'} =c'2) b | (b3{/d'} =c'2) b b2 z e'2 z | ^d'2 z!p! B3 (g3 f2) e | %10
 (e3 d2) c (c3 B2) A | (A3 F2) A (g3 f2) e | (e3 d2) c (c3 B2) A | (A3 F2) D (d3 ^A2) d | %14
 (d3 B2) z (d3 ^A2) d | (d3 B2) z (E3 F2) G |!p! (B3 A3 G3 E3) | D2 z A3 (g3 f2) e | %18
 (e3 d2) c (c3 B2) A | (A3 F2) A (g3 f2) e | (e3 d2) c (c3 B2) A | (A3 F2) D (d3 ^A2) d | %22
 (d3 B2) z (d3 ^A2) d | (d3 B2) d!p! (d3 B2) d | (d3 B2) d (d3 B2) e |!pp! (e3 B2) e (e3 B2) e | %26
 (e3 d2) e (e3 d2) e | (e3 c2) a (a3 e2) c' | (c'3 a2) e' (e'3 a2) d' |!f! d'6 e'3 a3 | %30
 f'2 z!p! A,B,C (DCD) A,DE | (FEF) DEF (GFG) ABc | (dcd) ABc (dcd) efg | (aga) ega (bab) fab | %34
 (c'bc') abc' (d'c'd') abc' |!f! (d'c'd') abc'!pp! (d'!f!c'd') abc' | (d'c'd') abc' (d'c'd') abc' | %37
 (d'c'b) ba^g gfe edc | c2 z!p! (f3 e3) d3 | .c3 .B3 .^d3 .e3 | (f6 ^d3) B3 |!f! ^g3 (c3 B3) .A3 | %42
 .^G3 (c3 B3) .A3 | .^G3 (!>!A3 G3) !>!.F3 | .E2 z z3 z6 | z12 | z12 | %47
 (B,A,B,) =CDE!<(! =FGA B=cd!<)! |!ff! e2 z z3 z6 | z12 | z12 |!mf! (GFG) A_B!<(!=c dcd e=fg!<)! | %52
!ff! a2 z z3 z6 | z6 (a^ga) a3 | (a6 A2) z z3 | z6 (a^ga) a3 | (a6 A2) z z3 | (a6 A2) z z3 | (e12 | %59
!>(! E6-) E2!>)! z E3 |!p! (e6 d3 c3) | (c3- c2 B ^G3 E3) | (e6 d3 c3) | (c3- c2 B ^G3 E3) | %64
 (A12- | A6 E3) A3 | (A3 ^G3){G} F3 E3 | (E6 A2) z E3 | (e6 d3 c3) | (c3- c2 B ^G3 E3) | %70
 (e3 d3 d3 c3) | (c3- c2 B ^G3 E3) |!p! (A6 ^G3 F3) | F12 | E12- | E6 (E6 | D3) z3 z6 | %77
 z3 (=F3 E3 D3) | (C6 B,6) | z3 E3 (d3 c2) B | (B3 A2) ^G (G3 F2) E | A3 E3!p!!mf! (d3 c2) B | %82
 (B3 A2) ^G (G3 F2) E | A3 E3 (g3 f2) e | (e3 d2) c (c3 B2) A | (a3 f3 e3 ^d3) | (e3 c3 d3- d2 B) | %87
 A2 z!p! EF^G (AGA) EAB | (cBc) Acd (e^de) cef |!f! (gf).e dce (gf).e dce | gfe dcB ^AGF EDC | %91
 B,2 z!p! F^G^A (BAB) FBc | (dcd) Bde (fef) ^df^g |!f! (a^g).f e^df (ag).f edf | %94
 a^gf e^dc ^BA^G FE^D | C2 z!f! EF^G (AGA) Bcd | (e^de) f^ga (bab) c'd'b | e'2 z EF^G (AGA) Bcd | %98
 (e^de) f^ga (bab) c'd'b | e'2 z!pp! .F!f!G^A (BAB) dcB | ABc def (gfg) abc' | %101
 d'2 z e'f'^g'!ff! (a'g')f' e'^d'f' | (a'^g')f' e'^d'f' (a'g')f' e'd'f' | a'^g'f' e'd'c' ba^g fag | %104
 fed cBA ^GFE DCB, |!ff! [A,EA]6 B3 E3 | c3 z3 z6 | z12 | z12 |!p! (EDE) =FGA!<(! _B=cd e=fg!<)! | %110
!f! a2 z z3 z6 | z12 | z12 |!p! (CB,C) DE=F!<(! GAB cde!<)! |!f! =f2 z z3 z6 | z6 (d'c'd') d'3 | %116
 (d'6 d2) z z3 | z6 (d'c'd') d'3 | (d'6 d2) z z3 | (d'6 d2) z z3 | z3!p! A,CD (EDE) CEF | %121
 (GFG) EGA (_BAB) GAB | (cBc) Acd (ede) cef | (gfg) ega (_bab) e^ga | (bab) eab (c'bc') abc' | %125
!f! d'6 e'3 a3 | f'3 z3 z6 | [Dfa]6 [df]3 [Ad]3 | [FA]3 [DF]3 (a3{/c'} b2) a | %129
 (a3{/c'} b2) a a3 d'3 | c'2 z B,C^D (EDE) B,EF | (GFG) EGA (BAB) GB^d | %132
 (e^de) Beg (b3{/d'} =c'2) b | (b3{/d'} =c'2) b b3 e'3 | ^d'2 z!p! B3 (g3 f2) e | %135
 (e3 d2) c (c3 B2) A | (A3 F2) A (g3 f2) e | (e3 d2) c (c3 B2) A | (A3 F2) D (d3 ^A2) d | %139
 (d3 B2) z (d3 ^A2) d | (d3 B2) z!p! (E3 F2) G | (B3 A3 G3 E3) | (D3 F2) A (d3 ^A2) d | %143
 (d3 B2) z (d3 ^A2) d |!p! (d3 B2) d (d3 B2) d | (d3 B2) d (d3 B2) d | (d3 _B2) d (d3 B2) _e | %147
 (_e3 _B2) e (e3 B2) e | (_e3 _B2) e (e3 B2) e |!f! (_e3 =c2) e (e3 c2) =f | (=f6 _e3 d3) | %151
 (d3- d2 =c A3 =F3) | (=f3 e3 _e3 d3) | (d3- d2 =c A3 =F3) |!p! (_B12- | B6 =F3) _B3 | %156
 (_B3 A3){A} G3 =F3 | (=F6 D6- | D6)!<(! (=C3 _B,3)!<)! | _E12 |!<(! (D3 _D3 =C3 _B,3)!<)! | %161
 _E6- E3 =F3 |!p! (=f6 d3 _B3) | (=f6 d3 A3) | (=f6 d3 G3) | (G12- | G3 ^G3 A3 B3) | %167
!pp! =c6 .d3 .G3 | .e3 z3 z6 | =c6 .d3 .G3 | .e2 z z3 z3!pp! .G.A.B | (=cBc) .G.c.d e2 z .G.c.d | %172
 (ede) .=c.e.=f g2 z z3 |!pp! E6 .=F3 .D3 | .C2 z z3 z3!pp! .E.F.^G | (A^GA) .E.A.B c2 z .A.c.d | %176
 (ede) ce=f g2 z z3 |!pp! d6 ._B3 .G3 | .F3 z3 z6 |!p! (!>!d6 ._e3) .A3 | .d3 .G3 !>!=c3- c2 B | %181
 .B3 !>!g6 =f3- | f3 (_e3- e2 d =c2 B) | .=c2 z z3 z6 | z12 | z3 ABc (dcd) e=fg | %186
 (aga A) z z (cBc e) z z | (dcd =f) z z (_bab g) z z |!f! (d'6 ._e'3) .a3 | .d'3 .g3 =c'3- c'2 c' | %190
 b3 g3 _b3- b2 b | a3 =f3 a3- a2 a | !>!^g6 !>!=g6 | !>!f6 !>!=f6 | %194
 [G,_E_e]2 z!ff! _B,=CD (EDE) B,E=F | G2 z z3 z6 | z3!ff! _b=c'd' (_e'd'e') be'=f' | %197
 g'2 z _b3 g3 _e3 | d2 z!ff! ^G,B,C (DCD) B,DE | =F2 z z3 z6 | z3 ^gbc' (d'c'd') bd'e' | %201
 =f'2 z =f3 e3 d3 | c2 z!p! A,CD (EDE) CEF | (GFG) EGA (_BAB) GAB | (cBc) EAB (cBc) Acd | %205
!f! (ede) A^de (fef) Aef | g2 z!ff! a3 (g'3 f'2) e' | (e'3 d'2) c' (c'3 b2) a | %208
 (a3 f2) A (g3 f2) e | (e3 d2) c (c3 B2) A | (A3 F2) D (d3 ^A2) d | (d3 B2) z (d3 ^A2) d | %212
 (d3 B2) z (E3 F2) G | (B3 A3 G3 E3) | (D3 F2) A (d3 ^A2) d | (d3 B2) z!mf! (d3 ^A2) d | %216
!p! (d3 B2) d (d3 B2) d | (d3 B2) d (d3 B2) d | (d3 _B2) d (d3 B2) d |!pp! (=c3 _B2) c (c3 B2) c | %220
 (=c3 A2) c (c3 A2) c | (B3 A2) B (B3 A2) B | (B3 ^G2) B (B3 G2) B | (_B3 G2) B (B3 G2) e | %224
!f! (e3 A2) e (e3 A2) e | (e3 A2) e (e3 A2) a | (a6 g3 f3) | (f3- f2 e c3 A3) | (a6 g3 f3) | %229
 (f3- f2 e c3 A3) |!p! d12- | d6 A3 d3 | (d3 c3){c} B3 A3 | (A6 d3) A3 | (a6 g3 f3) | %235
 (f3- f2 e c3 A3) | (a3 ^g3 =g3 f3) | (f3- f2 e c3 A3) |!p! (d6 c3 B3) | B12 | A12- | A6 A6 | %242
 (G3 F3 G3 ^A3) | (B3 c3 d3) z3 | z12 | z3 A3 (g3 f2) e | (e3 d2) c (c3 B2) A | d3 A3 (g3 f2) e | %248
 (e3 d2) c (c3 B2) A | d3 d3 (=c'3 b2) a | (a3 g2) f (f3 e2) d | (d'3 b3 a3 ^g3) | %252
 (a3 f3 g3- g2 e) | d2 z!p! ABc (dcd) Ade | (fef) dfg (a^ga) fab |!f! (=c'b).a gfa (c'b).a gfa | %256
 =c'ba gfe ^d=cB AGF | E2 z!p! Bc^d (ede) Bef | (gfg) ega (bab) ^gbc' | %259
!f! (d'c').b a^gb (d'c').b agb | d'c'b a^gf ^edc BA^G | F2 z!f! ABc (dcd) efg | %262
 (a^ga) bc'd' (e'c'd') e'f'g' | a'2 z ABc (dcd) efg | (a^ga) bc'd' (e'c'd') e'f'g' | %265
 (a'g'f') (f'e'd') (d'c'b) (d'c'b) | (agf) edc BAG FED |!ff! Adf a^ga Bdf b^ab | %268
 Beg b^ab ce=a c'bc' | dfb d'2 z =CFA e2 z | DGA B2 z A,B,=C DEF | GFG G, z z z6 | z12 | %273
 (e6 .f3) .B3 | .e3 .A3 !>!d3- d2 c | c3!f! a6 g3- | g3 .f.g.a (bab) .c'.d'.e' | f'2 z a6 g3- | %278
 g3 .f.g.a (bab) .c'.d'.e' | f'2 z!p! (a3 ._b3) .e3 | .a3 .d3 g3- g2 =f | (=f12- | f6 ^f6) | %283
 (g6 ^g6 | a6 ^g6) | A,B,C DEF (GFG) EGA | (_BAB) GA=B (cBc) Acd |!f! (ede) Ace (gfg) abc' | %288
!ff! d'6 e'3 a3 | f'12 | d'6 e'3 a3 | f'6 c'6 | d'6 b6 | a6 f6 |!f! d3 B3 A3 ABc | %295
 (dcd) Acd (ede) Ade | (fef) def (^gfg) eab | (c'bc') abc' (d'c'd') ad'e' |!f! f'3 g'3 e'3 c'3 | %299
 a'12- | a'2 z g'3 e'3 c'3 | d'3 a3 (g'3 f'2) e' | (e'3 d'2) c' (c'3 b2) a | d'3 a3 (g'3 f'2) e' | %304
 (e'3 d'2) c' (c'3 b2) a | d'3 z3!p! (c3 d2) e | (e3 f2) g (g3 ^g2) a | (a3 b2) c' (c'3 d'2) e' | %308
 (e'3 f'2) g' g'3!ff! abc' | (d'c'd') ad'e' (f'e'f') abc' | (d'c'd') fg^g (aga) Ade | %311
 (fef) ABc (dcd) FG^G | AFD FAd (fA).d fad' | f'2 z z3 [Aa]2 z z3 | [Af]2 z z3 [A,Ec]2 z z3 | %315
 [Dd]2 z z3 z6 |] %316
V:2
!f! [Dd]6 [de]3 [ce]3 | [df]2 z A,B,C (DCD) A,DE | (FEF) DFG (A^GA) FAc | (dcd) z3 ([DAf]3 g2) f | %4
 ([Af]3 g2) f f2 z d2 z | [ce]2 z B,C^D (EDE) B,EF | (GFG) EGA (BAB) GB^d | (e^de) z3 (g3 a2) g | %8
 (g3 a2) g g2 z ^A2 z | B2 z z3!p! E6 | E6 E6 | F2 z z3 E6 | E6 E6 | F2 z z3 (!>!^A6 | %14
 B2) z z3 (!>!^A6 | B2) z z3 z6 | (G3 F3 E3 C3) | D3 z3!p! C6 | E6 E6 | F2 z z3 C6 | E6 E6 | %21
 F2 z z3 D6- | D3 z3 D6- | D3 z3 z3 z2!p! B | (B3 G2) B (B3 G2) B |!pp! (B3 G2) B (B3 G2) d | %26
 (d3 B2) d (d3 B2) c | (c3 A2) c (c3 A2) e | (e3 c2) g (g3 e2) [df] |!f! [df]6 [de]3 [ce]3 | %30
 [df]2 z z3 z6 |!p! !>![Dd]6 e3 A3 | f6 g6- | g3 g3 f3 d3 | g6 (f6 | e3)!f! (a3 .^g3) .f3 | %36
 .e3 .f3 .B3 .F3 | E6 z3 (^GAB) | A2 z!p! (d3 c3) B3 | .A3 .G3 .F3 .E3 | (^D3 C3) B,3 DEF | %41
!f! B,3 (A3 ^G3) .F3 | .E3 (A3 ^G3) .F3 | .E3 (!>!F3 E3) .B,3 | .B,2 z z3 z6 | z12 | %46
 (A,^G,A,) A,3 A,6 | G,6 G,6 | G,2 z z3 z6 | z12 | (=FEF) F3 F6 |!<(! [=CE]6 [CE]6!<)! | %52
 [=C=F]2 z z3 z6 | (=FEF) F3 E6 | D6 E6 | (=FEF) F3 E6 | (DCD) D3 D6 | (^DCD) D3 D6 | E6 E6 | %59
!>(! E6- E3-!>)! E3 |!p! (E6 ^G3 A3) | F6 z3 E3 | (E6 ^G3 A3) | F6 z3 E3 | (A6 G3 F3) | %65
 (F3- F2 E C3 A,3) | D12 | (C6 E2) z E3 | (E3 F3!<(! ^G3 A3)!<)! |!>(! (F6!>)! E6- | %70
 E3 F3!<(! G3 A3)!<)! |!>(! (F6!>)! E6) |!p! C12 | (F6 B,6) | B,12- | B,6 C6 | (D3 C3 D3 ^E3) | %77
 (F3 ^G3 A3 F3) | E12- | E2 z z3 D6- | D3 D3 D3 D3 | E3 z3 D6- | D3 D3 D3 D3 | E3 A,3 (G3 F2) E | %84
 (E3 D2) C (C3 B,2) A, | (A3 D3 C3 ^B,3) | (C3 A,3 B,3 ^G,3) | A,3 z3!p! A,3 z3 | A,3 z3 A,3 z3 | %89
!f! ^A,3 A,3 A,3 A,3 | ^A,3 z3 z3!p! (A,3 | B,3) z3 B,3 z3 | B,3 z3 B,3 z3 |!f! ^B,3 B,3 B,3 B,3 | %94
 ^B,6 z3!p! (B,3 | C2) z!f! (!>!e6 d3) | (c6 B6) | z3 (e3 ^d3) =d3 | (c6 B6) | z3 F6 ^G3 | A6 A6 | %101
!ff! a6- (a^g)f e^df | (a^g)f e^df (ag)f edf | a2 z z3 c2 z z3 | [DBf]2 z z3 [EBe]2 z z3 | %105
!ff! [CE]6 =F3 E3 | E3 z3 z6 | z12 |!p! (!>!DCD) D3 D6 |!<(! =C6 C6 | =C2!<)! z z3 z6 | z12 | %112
!p! (_B,A,B,) B,3 B,6 |!<(! A,6 A,6 | A,2!<)! z z3 z6 | (DCD) D3 D6 | D3 z3 z6 | (DCD) D3 D6 | %118
 D2 z z3 z6 |!<(! (EDE) E3 E6!<)! |!f! E2 z z3 z6 |!p! E2 z z3 z6 | E2 z z3 z6 | z12 | z12 | %125
!f! [df]6 [de]3 [ce]3 | d2 z A,B,C (DCD) A,DE | (FEF) DFG (A^GA) FAc | (dcd) z3 (f3 g2) f | %129
 (f3 g2) f f3 d3 | A2 z z3 z6 | !>![EBb]6 [Bg]3 [Be]3 | [GB]3 G3 (g3 a2) g | (g3 a2) g g3 e3 | %134
 B2 z z3!p! E6 | (AEA) A3 (EA,E) E3 | (FDF) F3 E6 | (AEA) A3 (EA,E) E3 | D2 z z3 D6- | %139
 D2 z z3 !>!D6- | D2 z z3 z6 | (G3 F3 E3 C3) | D3 z3 D6- | D2 z z3 D6- | D2 z z3 z3 z2!p! B | %145
 (B3 G2) B (B3 G2) _B | (_B3 G2) B (B3 G2) B | (_B3 G2) B (B3 G2) B | (_B3 G2) B (B3 G2) B | %149
!f! (_B3 _G2) B (B3 G2) B | (_B6 A3 B3) | (G6 =F6- | F3 G3 A3 _B3) | (G6 =F2) z F3 | %154
!p! (_B6 A3 G3) | (G3- G2 =F D3 _B,3) | _E6- E3 E3 | (D6 _B,6- | B,6)!<(! (=C3 D3)!<)! | %159
 (A,6 =C3 A,3) |!<(! (_B,6 =C3 D3)!<)! | (A,6 =C3 =F3) |!p! =F12- | F12- | F6 z3 G,3 | %165
 (=F6 D3 G,3) | G,6 z6 |!pp! =C6 .C3 .B,3 | .=C2 z!pp! .G,.A,.B, (CB,C) .G,.C.D | E6 .D3 .=F3 | %170
 .E2 z!pp! .G,.A,.B, (=CB,C) .G,.C.D | E2 z .=C.E.=F (G^FG) .E.G.B | =c2 z z3 z6 | %173
!pp! C6 .D3 .^G,3 | .A,2 z!pp! .E.F.^G (AGA) .E.A.B | c2 z .A,.C.D (EDE) .C.E.F | G2 z z3 z6 | %177
!pp! F6 .G3 .C3 | .A2 z A,B,C (DCD) A,B,C | D2 z!p! DGA (_BAB =c) z z | (AGA _B) z z (GFG A) z z | %181
 z3 (=f_ed =cBc d) z z | (BAB =c) z z (_AGA G2) z | (!>!=c6 .d3) .G3 | .=c3 .=F3 !>!_B3- B2 A | %185
 A2 z z3 z3 .d3 | .c3 (=f3 e3) .c3 | .A3 z3 z3!f! DFG | (AGA) FGA (_BAB) =c2 z | (d6 _e3) A3 | %190
 d3 G3 g3- g2 g | =f2 z z3 z3!f! Ade | (=fef) Acd (ede) cde | (dcd) ABc (dcd) =FGA | _B2 z z3 z6 | %195
 z3!ff! _B=cd (_ede) Be=f | g2 z z3 _B6- | B3!ff! [_E_e]3 [Ee]3 [Ee]3 | [Dd]2 z z3 z6 | %199
 z3!ff! ^GBc (dcd) Bde | =f2 z z3 d6- | d3!ff! [D=f]3 [De]3 [Dd]3 | c3 z3 z6 |!p! [CE]2 z z3 z6 | %204
 C2 z z3 z6 | z12 | z6!f! (AEA) A3 | (AEA) A3 (AEA) A3 | (ADA) A3 (AEA) A3 | (AEA) A3 (AEA) A3 | %210
 A2 z z3 !>!D6- | D2 z z3 !>!D6- | D2 z z3 z3 B,3 | (B,3 F3) (E3 C3) | D2 z z3 (F6 | G2) z z3 (F6 | %216
 G2) z z3 z3 z2!p! B | (B3 G2) B (B3 G2) _B | (_B3 G2) B (B3 G2) B |!pp! (_B3 G2) B (B3 G2) B | %220
 (A3 =F2) A (A3 F2) A | (A3 =F2) A (A3 F2) A | (D3 B,2) D (D3 B,2) D | (G3 E2) G (G3 E2) _B | %224
!f! (A3 G2) A (A3 G2) A | (A3 G2) A (A3 G2) A | (A6 c3 d3) | B6 z3 A3 | (A3 B3 c3 d3) | B6 z3 A3 | %230
!p! (d6 c3 B3) |!>(! (B3- B2!>)! A F3 D3) | G12 | (F6 A2) z z3 | (A3 B3!<(! c3 d3)!<)! | %235
!>(! (B6!>)! A6- | A3 B3!<(! c3 d3)!<)! |!>(! (B6!>)! A3) A3 |!p! d6- d3 d3 | (f6 e3 d3) | %240
 (d6 c3 A3) | !>!=c6- c3 c3 |{/=c} (B3!<(! ^A3 B3 ^c3!<)! | d3 g3 f3 e3) | (d6 e3 c3) | d6 A6- | %246
 A3 G3 G3 G3 | A6 G6- | G3 G3 G3 G3 | A6 [Dd]6 | [Dd]6 [Dd]6 | [Dd]12- | [Dd]3 z3 z6 | %253
 z3!p! A6 F3- | F3 A,6 ^D3- | D2 z!f! ^D2 z D2 z D2 z | ^D2 z z3 z3!p! (D3 | E2) z!p! B6 G3- | %258
 G3 B,6 ^E3- | E2 z!f! ^E2 z E2 z E2 z | ^E2 z z3 z3!p! (E3 | F2) z!f! (a6 g3) | (f6 e6) | %263
 z3 (a3 ^g3) =g3 | (f6 e6) | z3 (D3 E3 ^E3 | F3) .F3 .G3 .^G3 |!f! A2 z z3 F2 z z3 | %268
 G2 z z3 G2 z z3 | F2 z z3 z6 | z12 | (b6 .=c'3) .f3 | .b3 .e3 a3- a2 g | g3 (GAG F) z z (FGF | %274
 E) z z (A6 ^G3) | A2 z .A.B.c (dcd) .e.f.g | c2 z !>!f6 e3 | d2 z .c.B.c (dcd) .e.f.g | %278
 c2 z !>!f6 (e3- | e!p!dc dcd) D z z (_B=cB | A) z z (ded c) z z (CB,C | D) z z (d3 ._e3) .A3 | %282
 (d6 ._e3) .A3 | .d3 (e3 .=f3) .B3 | (e6 .=f3) .B3 | e3 z3 z6 | z12 | z12 | %288
!ff! [Ddf]6 [de]3 [ce]3 | d6 z6 | [Aa]6 e3 g3 | f2 z!p! A,CD (EDE) A,DE | (FEF) DEF (^GFG) EAB | %293
 (cBc) ABc (dcd) Ade |!f! f2 z E3 F3 E3 | d6!p! A6 | A6 D6 | C6 A6 |!f! F3 B3 E3 ABc | %299
 (dcd) Acd (ede) Ade | f3 e3 c3 A3 | d2 z A3 (c3 d2) e | (e3 f2) g g3 A3 | f2 z A3 (c3 d2) e | %304
 (e3 f2) g g3 A3 | f3 z3!p! (A3 B2) c | (c3 d2) e e3 E3 | (c3 d2) e (e3 f2) g | %308
 g3 [Aa]6!ff! [Ag]3 | [Af]3 z3 [Af]3 z3 | [Af]3 z3 [FA]3 z3 | [FA]3 z3 [FA]3 z3 |!ff! D6 D6 | %313
 D2 z z3 [Ae]2 z z3 | [Af]2 z z3 [A,GA]2 z z3 | [A,FA]2 z z3 z6 |] %316
V:3
!f! [FA]6 [GB]3 [GA]3 | [FA]2 z A,B,C (DCD) A,DE | (FEF) DFG (A^GA) FAc | d2 z A,B,C (DCD) (DCD) | %4
 (DCD) (DCD) (DCD) EFD | A2 z B,C^D (EDE) B,EF | (GFG) EGA (BAB) GB^d | e2 z B,C^D (EDE) (EDE) | %8
 (E^DE) (EDE) (EDE) FGE | B2 z z3!p! G6 | G6 G6 | F6 G6 | G6 G6 | F6 !>!D6- | D2 z z3 !>!D6- | %15
 D2 z z3 z3 (D3 | C3 D3 A,3 G,3) | F,3 z3!p! G6 | G6 G6 | F6 G6 | G6 G6 | F6 (=C6 | B,3) z3 (=C6 | %23
 B,3) z3 z6 | z6 z3 z2!pp! G | (G3 E2) G (G3 E2) ^G | (^G3 B2) G (G3 B2) =G | (G3 A2) G (G3 A2) G | %28
 (G3 A2) G (G3 A2) [FA] |!f! [FA]6 [GB]3 [GA]3 | [FA]2 z z3 z6 | z12 |!p! !>!A6 B3 E3 | c6 d6 | %34
 G6 A3 D3 |!f! (B3 c3 .d3) .c3 | .B3 .A3 .^G3 .C3 | B,6 z3 EF^G | (A^GA)!p! EFG (AGA) EFG | %39
 (A^GA) EFG (AGA) EFG | (A^GA) EFG (AGA) cBA |!f! ^G3 z3 z3 .B3 | .B3 z3 z3 .B,3 | %43
 .B,3 (!>!^D3 B,3) !>!.A,3 | .^G,2 z z3 z6 | (=F,E,F,) F,3 F,6 | =F,6 F,6 | =F,6 F,3 D,3 | %48
 =C,2 z z3 z6 | (DCD) D3 D6 | D6 D6 |!<(! G6 _B,6!<)! | A,2 z z3 (A,^G,A,) A,3 | A,6 A,6 | %54
 A,2 z z3 (A,^G,A,) A,3 | A,6 A,6 | (A,^G,A,) A,3 A,6 | (A,^G,A,) A,3 A,6 | [B,D]6 [B,D]6 | %59
 [B,D]6 [B,D]6 |!p! (C6 B,3 A,3) | D12 | (C6 B,3 A,3) | D6- D3 D3 | (C6 E3 D3) | %65
 (D3- D2 C A,3 C3) | (B,6 A,3 B,3) | (A,6 C2) z z3 | z12 | !>!E,12- | E,2 z z3 z6 | %71
 !>!E,6- E,3 (E3 |!p! A6- A3) A3 |!>(! (c6 B3!>)! A3) | (A6 ^G3 E3) | G6- G3 G3 | %76
{/G} (F3!<(! ^E3 F3 ^G3!<)! | A3) (!>!d3 c3 B3) | (A6 B3 ^G3) | A6 E6- | E3 E3 E3 E3 | E3 z3 E,6- | %82
 E,3 E,3 E,3 E,3 | E,6 [A,A]6 | [A,A]6 [A,A]6 | [A,A]12- | [A,A]3 z3 z6 | z6!p! E,3 z3 | %88
 E,3 z3 E,3 z3 |!f! E,3 E,3 E,3 E,3 | E,6 z3!p! (E,3 | F,3) z3 F,3 z3 | F,3 z3 F,3 z3 | %93
!f! F,3 F,3 F,3 F,3 | F,6 z3!p! (F,3 | E,2) z!f! (c6 B3) | (A6 ^G6) | z3 (E3 F3) ^G3 | %98
 E3 (A6 ^G3) | A3 (e3 ^d3) =d3 | c6- c3 G3 | (F6 E2) z!f! (^B3 | c) z z (^B3 c) z z (B3 | %103
 c2) z z3 [FA]2 z z3 | [FA]2 z z3 D2 z z3 |!ff! [CE]6 [D=F]3 ^G,3 | A,3 z3 z6 | %107
!p! (!>!_B,A,B,) B,3 B,6 | _B,6 B,6 |!<(! _B,6 B,6 | A,2!<)! z z3 z6 |!p! (!>!G,F,G,) G,3 G,6 | %112
 G,6 G,6 |!<(! G,6 G,6 | =F,2!<)! z z3 (A,^G,A,) A,3 | G,6 A,6 | _B,3 z3 (A,^G,A,) A,3 | G,6 A,6 | %118
 (_B,A,B,) B,3 B,6 | (B,A,B,) B,3 B,6 |!f! C2 z z3 z6 |!p! C2 z z3 z6 | C2 z z3 z6 | z12 | z12 | %125
!f! [FB]6 [GB]3 [GA]3 | [FA]2 z A,B,C (DCD) A,DE | (FEF) DFG (A^GA) FAc | (dcd) ABc (dcd) (dcd) | %129
 (dcd) (dcd) dDE FED | A2 z B,C^D (EDE) B,EF | (GFG) EGA (BAB) GB^d | (e^de) Bcd (ede) (ede) | %133
 (e^de) (ede) eEF GFE | B2 z z3!p! G6 | (GEG) G3 (GEG) G3 | F2 z z3 (GEG) G3 | (GEG) G3 (GEG) G3 | %138
 F2 z z3 (!>!A,6 | B,2) z z3 (!>!A,6 | B,3) z3 z3 (D3 | C3 ^D3 E3 G,3) | F,3 z3 (=C3 D,3) | %143
 B,2 z z3 (=C3 D,3) | B,2 z z3 z6 | z6 z3 z2!p! G | (G3 D2) G (G3 D2) G | (G3 _E2) G (G3 E2) G | %148
 (G3 _E2) G (G3 E2) _G |!f! (_G3 _E2) G (G3 E2) D | (D6 =C3 _B,3) | _E12 | (D3 _D3 =C3 _B,3) | %153
 _E12 |!p! (D6 =F3 _E3) | (_E3- E2 D _B,3 D3) | (=C6 _B,3 C3) | _B,6- B,6- | %158
 B,3 (_B,3!<(! A,3 B,3)!<)! | (=F,12- |!<(! F,3 G,3 A,3 _B,3)!<)! | =F,6- F,3 z3 |!p! (_B,12 | %163
 A,12 | G,2) z z3 z6 | z12 | z12 |!pp! E6 .A3 .=F3 | .E2 z!pp! .G,.A,.B, (=CB,C) .G,.C.D | %169
 E z z (=C6 .B,3) | .=C2 z z3 z6 | z12 | z3!pp! .G,.=C.D (EDE) .C.E.G | A6 .A,3 .B,3 | %174
 .A,2 z z3 z6 | z12 | z3!pp! EGA (_BAB) A=Bc | d2 z z3 .D3 ._B,3 | .A,2 z z3 z3!p! A,DE | %179
 (FEF) DEF .G3 .A3 | .F3 .G3 .E3 .F3 | .G3 z3 z6 | z12 | z3!p! =CDE (=FGF E) z z | %184
 (E=FE D) z z (DCD G,) z z | ([A,A]6 ._B3) .E3 | .A3 .D3 G3- G2 G | .=F3 .D3 d3- d2 d | %188
!f! d6 z3 A,_B,C | (D=CD) _B,A,B, (A,G,A, D) z z | (GFG G,) z z (=CB,C G,) z z | A,2 z z3 z6 | %192
 z12 | z12 | [G,G]2 z z3 z3!ff! _B,=CD | (_EDE) _B,E=F G2 z _B3 | _B3 G3 _E3 _B,3 | %197
 G,3!ff! [G_B]3 [GB]3 [GB]3 | [=FB]2 z z3 z3!ff! ^G,B,C | (DCD) B,DE =F2 z D3 | =f3 d3 B3 ^G3 | %201
 D3!ff! [=FB]3 [FB]3 [FB]3 | [EA]3 z3 z6 |!p! [E,G,]2 z z3 z6 | [E,G,]2 z z3 z6 | z12 | %206
 z6!f! (GEG) G3 | (GEG) G3 (GEG) G3 | (FDF) F3 (GEG) G3 | (GEG) G3 (GEG) G3 | F2 z z3 (!>!=C6 | %211
 B,2) z z3 (!>!=C6 | B,2) z z3 z3 G,3 | (F,3 B,3) (B,3 G,3) | F,2 z z3 (=C6 | B,2) z z3 (=C6 | %216
 B,2) z z3 z6 | z6 z3 z2!p! G | (G3 D2) G (G3 D2) G |!pp! (G3 =C2) G (G3 C2) G | %220
 (=F3 =C2) F (F3 C2) F | (=F3 B,2) F (F3 B,2) F | (E3 B,2) E (E3 B,2) E | (E3 _B,2) E (E3 B,2) G | %224
!f! (G3 E2) G (G3 E2) G | (G3 E2) G (G3 E2) F | A12 | G6- G3 G3 | A12 | G6- G3 G3 |!p! (F6 A3 G3) | %231
 (G3- G2 F D3 F3) | (E6 D3 E3) | (D6 F2) z z3 | (F6 E3 D3) | (^G6 =G3) G3 | F3 (F3 E3 D3) | %237
 (^G6 =G3) G3 |!p! F6- F3 B,3 | (B,6 E6) | E12- | E6 F6 | G6 z6 | z3 (_B3 A3 G3) | (F6 G3 E3) | %245
 A6 G6- | G3 A,3 A,3 A,3 | A,6 A,6- | A,3 A,3 A,3 A,3 | A,3 D3 (=c3 B2) A | (A3 G2) F (F3 E2) D | %251
 (D3 G3 F3 ^E3) | (F3 D3 E3 C3) |!p! A3 F6 D3- | D3 F,6 A,3- | %255
 A,2 z!f! [F,A,]2 z [F,A,]2 z [F,A,]2 z | [F,A,]2 z z3 z3!p! (A,3 | G,2) z!p! G6 E3- | %258
 E3 G,6 B,3- | B,2 z!f! [^G,B,]2 z [G,B,]2 z [G,B,]2 z | [^G,B,]2 z z3 z3!p! (B,3 | %261
 C2) z!f! (!>!F6 E3) | (D6 C6) | z3 (A3 B3) c3 | (A3 d6) c3 | d3 A,3 B,3 B,3 | D3 .C3 .D3 .D3 | %267
!f! F2 z z3 D2 z z3 | E2 z z3 E2 z z3 |!ff! ([Dd]6 .e3) .A3 | .d3 .G3 =c3- c2 B | B3 G3 F3 (A3- | %272
 ABA GAG F) z z (FGF | E) z z z3 z6 | z3 (CDC B,) z z (B,CB,) | (A,6 .B,3) .E,3 | %276
 .A,3 .D,3 !>!G,3- G,2 F, | F,2 z (A,3 .B,3) .E,3 | .A,3 .D,3 !>!G,3- G,2 F, | F,2 z z3 z3!p! (G3 | %280
 F3 =F3 E3 A3) | D2 z z3 (!>!=CDC) CCC | _B, z z z3 (!>!=CDC) CCC | _B, z z z3 (!>!DCD) DDD | %284
 E z z z3 (!>!DED) DDD | C z z z3 z6 | z12 | z12 |!ff! [DA]6 [GB]3 [GA]3 | %289
 [FA]2 z A,B,C (DCD) A,DE | F6 B3 c3 | d2 z!p! A,CD (EDE) A,DE | (FEF) DEF (^GFG) EAB | %293
 (cBc) ABc (dcd) Ade |!f! f2 z D3 D3 C3 | A6!p! G6 | F6 E6 | E6 D6 |!f! D3 E3 C3 A,B,C | %299
 (DCD) A,CD (EDE) A,DE | F2 z [GB]3 [GA]3 [GA]3 | [FA]3 z3 [GA]3- .[GA]2 [GA] | %302
 [GA]3- [GA]2 [GA] [GA]3- [GA]2 [GA] | [FA]3 z3 [GA]3- [GA]2 [GA] | %304
 [GA]3- [GA]2 [GA] [GA]3- .[GA]2 [GA] | [FA]3 z3!p! [GA]6 | A6 x6 | (C3 B,2) A, A,3- A,2 G, | %308
 (G,3 F,2) E, E,3!ff! A,3 | [F,A,]3 z3 [FA]3 z3 | [FA]3 z3 [A,D]3 z3 | [A,D]3 z3 [A,D]3 z3 | %312
!ff! [F,A,]6 [F,A,]6 | [F,A,]2 z z3 G2 z z3 | F2 z z3 [A,E]2 z z3 | [A,F]2 z z3 z6 |] %316
V:4
 x12 | x12 | x12 | x12 | x12 | x12 | x12 | x12 | x12 | x12 | x12 | x12 | x12 | x12 | x12 | x12 | %16
 x12 | x12 | x12 | x12 | x12 | x12 | x12 | x12 | x12 | x12 | x12 | x12 | x12 | x12 | x12 | x12 | %32
 x12 | x12 | x12 | x12 | x12 | x12 | x12 | x12 | x12 | x12 | x12 | x12 | x12 | x12 | x12 | x12 | %48
 x12 | x12 | x12 | x12 | x12 | x12 | x12 | x12 | x12 | x12 | x12 | x12 | x12 | x12 | x12 | x12 | %64
 x12 | x12 | x12 | x12 | x12 | x12 | x12 | x12 | x12 | x12 | x12 | x12 | x12 | x12 | x12 | x12 | %80
 x12 | x12 | x12 | x12 | x12 | x12 | x12 | x12 | x12 | x12 | x12 | x12 | x12 | x12 | x12 | x12 | %96
 x12 | x12 | x12 | x12 | x12 | x12 | x12 | x12 | x12 | x12 | x12 | x12 | x12 | x12 | x12 | x12 | %112
 x12 | x12 | x12 | x12 | x12 | x12 | x12 | x12 | x12 | x12 | x12 | x12 | x12 | x12 | x12 | x12 | %128
 x12 | x12 | x12 | x12 | x12 | x12 | x12 | x12 | x12 | x12 | x12 | x12 | x12 | x12 | x12 | x12 | %144
 x12 | x12 | x12 | x12 | x12 | x12 | x12 | x12 | x12 | x12 | x12 | x12 | x12 | x12 | x12 | x12 | %160
 x12 | x12 | x12 | x12 | x12 | x12 | x12 | x12 | x12 | x12 | x12 | x12 | x12 | x12 | x12 | x12 | %176
 x12 | x12 | x12 | x12 | x12 | x12 | x12 | x12 | x12 | x12 | x12 | x12 | x12 | x12 | x12 | x12 | %192
 x12 | x12 | x12 | x12 | x12 | x12 | x12 | x12 | x12 | x12 | x12 | x12 | x12 | x12 | x12 | x12 | %208
 x12 | x12 | x12 | x12 | x12 | x12 | x12 | x12 | x12 | x12 | x12 | x12 | x12 | x12 | x12 | x12 | %224
 x12 | x12 | (F6 E3 D3) | x12 | (F6 E3 D3) | x12 | x12 | x12 | x12 | x12 | x12 | x12 | x12 | x12 | %238
 x12 | x12 | x12 | x12 | x12 | x12 | x12 | x12 | x12 | x12 | x12 | x12 | x12 | x12 | x12 | x12 | %254
 x12 | x12 | x12 | x12 | x12 | x12 | x12 | x12 | x12 | x12 | x12 | x12 | x12 | x12 | x12 | x12 | %270
 x12 | x12 | x12 | x12 | x12 | x12 | x12 | x12 | x12 | x12 | x12 | x12 | x12 | x12 | x12 | x12 | %286
 x12 | x12 | x12 | x12 | x12 | x12 | x12 | x12 | x12 | x12 | x12 | x12 | x12 | x12 | x12 | x12 | %302
 x12 | x12 | x12 | x12 | G3 F2 E ([EA]3 D2 C) | x12 | x12 | x12 | x12 | x12 | x12 | x12 | x12 | %315
 x12 |] %316
V:5
!f! D6 G,3 A,3 | D2 z A,,B,,C, (D,C,D,) A,,D,E, | (F,E,F,) D,F,G, (A,^G,A,) F,A,C | %3
 (DCD) A,B,C (DCD) (DCD) | (DCD) (DCD) D2 z B,2 z | A,2 z B,,C,^D, (E,D,E,) B,,E,F, | %6
 (G,F,G,) E,G,A, (B,A,B,) G,B,^D | (E^DE) B,CD (EDE) (EDE) | (E^DE) (EDE) E2 z =C2 z | %9
 B,2 z z3!p! E,2 z z3 | C,2 z z3 A,,2 z z3 | D,2 z z3 E,2 z z3 | C,2 z z3 A,,2 z z3 | %13
 D,2 z z3 (!>!F,6 | G,2) z z3 (!>!F,6 | G,2) z z3 z6 | z6 (A,,6 | D,2) z z3 (A,,6 | %18
 ^A,,3 B,,3 E,3 C,3) | D,6 (A,,6 | ^A,,3 B,,3 E,3 C,3) | D,3 A,,3 (F,,6 | G,,3) z3 (F,,6 | %23
 G,,3) z3 z6 | z12 | z6 z3 z2!pp! E | (E3 ^G2) E (E3 G2) A, | (A,3 C2) A, (A,3 C2) A, | %28
 (A,3 C2) A, (A,3 C2) D |!f! D6 G,3 A,3 | D2 z!p! A,,B,,C, (D,C,D,) A,,D,E, | %31
 (F,E,F,) D,E,F, (G,F,G,) A,B,C | D2 z z3 z6 | z12 |!mf! E6!<(! F3 B,3!<)! | %35
[K:tenor]!f! (^G3 A3 .B3) .A3 | .G3 .F3 .E3[K:bass] .A,3 | ^G,6 B,3 E,3 | A,3 z3 z6 | z12 | %40
 z6 z3!p! B,,C,D, | (E,D,E,) B,,C,D, (E,D,E,) B,,C,D, | (E,^D,E,) B,,C,D, (E,D,E,) B,,C,D, | %43
!f! (E,^D,E,) B,,C,D, (E,D,E,) B,,C,D, | (E,D,E,) E,3 E,6 | E,6 E,6 | D,6 D,6 | %47
 D,2 z z3 G,,2 z z3 | (=CB,C) C3 C6 | =C6 C6 | B,6 B,6 | _B,2 z z3 =C,2 z z3 | (=F,E,F,) F,3 E,6 | %53
 D,6 =C,6 | (=F,E,F,) F,3 E,6 | D,6 =C,6 | (=F,E,F,) F,3 F,6 | (F,E,F,) F,3 F,6 | %58
 (^G,F,G,) G,3 G,6 | (^G,F,G,) G,3 G,6 |!p! A,12- | A,12- | A,6 z6 | A,12 | (A,6 C,3 D,3 | %65
 E,6) z3 E,3 | (E,,6 F,,3 ^G,,3 | A,,2) z z3 z3!p! C3 | (C6 B,3 A,3) | (^D6 =D3) D3 | %70
 C3 (C3 B,3 A,3) | (!>!^D6 =D3) E,3 |!p! (F,6 E,3 ^D,3) | ^D,12 | E,12- | E,6 (A,,6 | D,6) z6 | %77
 z3 (B,,3 C,3 D,3) | (E,6 D,6) | C,6 B,,6- | B,,3 B,,3 B,,3 B,,3 | C,6 B,,6- | %82
 B,,3 B,,3 B,,3 B,,3 | C,6 (C,3 D,2) E, | (E,3 F,2) G, (G,3 C,3) | (C,3 D,3 E,3 F,3) | (E,6 E,,6) | %87
 C,2 z z3!p! C,2 z z3 | C,2 z z3 C,2 z z3 |!f! C,3 C,3 C,3 C,3 | C,6 z3!p! (C,3 | %91
 D,2) z z3 D,2 z z3 | D,2 z z3 D,2 z z3 |!f! ^D,3 D,3 D,3 D,3 | ^D,6 z3!p! (D,3 | %95
!mp! E,2) z z3 z6 | z3!f! (E6 D3) | (C6 B,6) | z3 (E3 ^D3) =D3 | (C6 B,3) ^E,3 |!mf! F,6 E,6 | %101
 D,3 (D3 C) z z!f! (F3 | E) z z (F3 E) z z (F3 | E2) z z3 F2 z z3 | D,2 z z3 E,2 z z3 | %105
!ff! A,6 D,3 E,3 | A,,2 z!p! E,F,^G, (A,G,A,) A,3 | A,6 A,6 | G,6 G,6 | =C,2 z z3 =C,,2 z z3 | %110
!mf! =F,,2 z!p! =C,D,E, (=F,E,F,) F,3 | =F,6 F,6 |!<(! E,6 E,6!<)! | %113
 A,2 z z3!<(! A,,2 z A,,B,,C,!<)! | (D,C,D,) D,3 =C,6 | _B,,6 A,,6 | (G,,F,,G,,) G,,3 A,,6 | %117
 _B,,6 A,,6 | (G,,F,,G,,) G,,3 G,,6 | (^G,,F,,G,,) G,,3 G,,6 |!f! A,,2 z z3 z6 |!p! A,,2 z z3 z6 | %122
 A,,2 z z3 z6 | z12 | z12 |!f! B,6 G,3 A,3 | D2 z A,,B,,C, (D,C,D,) A,,D,E, | %127
 (F,E,F,) D,F,G, (A,^G,A,) F,A,C | (DC!mp!D) A,B,C (DCD) (DCD) | (DCD) (DCD) D3 B,3 | %130
 A,2 z B,,C,^D, (E,D,E,) B,,E,F, | (G,F,G,) E,G,A, (B,A,B,) G,B,^D | (E^DE) B,CD (EDE) (EDE) | %133
 (E^DE) (EDE) E3 =C3 | B,2 z z3!p! (E,3 D,3 | C,3 E,3 A,3 C3) | D2 z z3 (E,3 D,3 | %137
 C,3 E,3 A,3 C3) | D2 z z3 (!>!F,6 | G,2) z z3 (!>!F,6 | G,3) z3 z6 | z6 z3 (A,,3 | %142
 D,3 A,,3) F,,6 | (G,,3 D,,3) (F,,6 | G,,2) z z3 z6 | z12 | z12 | z6 z3 z2 =C | %148
 (=C3 _E2) C (C3 E2) C |!f! (=C3 _E2) C (C3 E2) =F, | =F,12- | F,6- F,2 z z3 |!p! =F,12- | %153
 F,6- F,2 z =F,3 |!p! (G,6 D,3 _E,3) | =F,12 | (=F,,6 G,,3 A,,3) | _B,,6 z3!p! =F,3 | %158
 (=F6 _E3 D3) | (D3- D2 =C A,3 =F,3) |!<(! (=F3 E3 _E3 D3)!<)! | (D3- D2 =C A,3 =F,3) |!p! (D,12 | %163
 =C,12 | B,,6) z6 | z12 | z12 |!pp! A,,2 z z3 =F,,2 z G,,2 z | =C,,2 z z3 z6 | %169
 z3 A,,2 z =F,,2 z G,,2 z | =C,,2 z z3 z6 | z12 | z12 | z3 A,2 z D,2 z =F,2 z | A,,2 z z3 z6 | %175
 z12 | z12 | z3 D,,2 z G,,2 z _B,,2 z | D,2 z z3 z6 | z12 | z12 |!p! (G,6 ._A,3) .D,3 | %182
 .G,3 .=C,3 !>!=F,3- F,2 F, | .E,2 z (=C3 B,3 _B,3 | A,2) z ._B,3 .G,3 .D3 | .C2 z z3 z6 | %186
 (A,6 ._B,3) .E,3 | .A,3 .D,3 !>!G,3- G,2 G, |!f! (F,E,F,) D,E,F, (G,F,G,) (A,G,.A, | %189
 F,) z z (G,F,G, A,) z z (F,E,F, | G,) z z (G,,A,,G,, E,) z z (=C,D,C,) | %191
!p! (=F,!f!G,F,) (E,F,E,) (D,E,D,) (=C,D,C,) | B,,6 C,3 A,,3 | D,6 D,,6 | G,,2 z z3 z6 | %195
 z6 z3!ff! _B,,=C,D, | (_E,D,E,) _B,,E,=F, (G,F,G,) E,G,_A, | _B,2 z G,,3 G,,3 G,,3 | %198
 ^G,,2 z z3 z6 | z6 z3!ff! ^G,,B,,C, | (D,C,D,) B,,D,E, (=F,E,F,) D,B,,A,, | ^G,,3 ^G,3 G,3 G,3 | %202
 A,3 z3 z6 |!p! A,,2 z z3 z6 | A,,2 z z3 z6 | z12 | z6!f! (A,,6 | C,2) z E,2 z A,2 z C2 z | %208
 D2 z z3 (A,,6 | C,2) z E,2 z A,2 z C2 z | D2 z z3 (!>!F,6 | G,2) z z3 (!>!F,6 | %212
 G,2) z z3 z3 E,,3 | (^D,,3 B,,3) (E,,3 A,,3) | D,,2 z z3 (D,6 | G,2) z z3 (D,6 | G,2) z z3 z6 | %217
 z12 | z12 |!pp!!mf! (E,,6 G,,2) z .=C,,2 z | .A,,2 z z3 z6 | (D,6 =F,2) z .B,,2 z | %222
 .^G,2 z z3 z6 | (D12 |!f! (C3) E2) C (C3 E2) C | (C3 E2) C (C3 E2) C | D12- | D6- D3 z3 | D12- | %229
 D12 |!p! (D6 F,3 G,3) | A,12 | (A,,6 B,,3 C,3 | D,3) z3 z6 | z12 | !>!A,,12- | A,,3 z3 z6 | %237
 !>!A,,6- A,,3 A,3 |!p! (B,6 A,3 ^G,3) | ^G,12 | A,12- | A,6 D,6 | G,6 z6 | z3 (E,3 F,3 G,3) | %244
 (A,6- A,3 G,3) | F,6 E,6- | E,3 E,3 E,3 E,3 | F,6 E,6- | E,3 E,3 E,3 E,3 | F,6 (F,3 G,2) A, | %250
 (A,3 B,2) =C C3 (F,3- | F,3 G,3 A,3 B,3) | A,6 A,,6 | F,2 z z3!p! F,,2 z z3 | %254
 F,,2 z z3 F,,2 z z3 |!f! F,,2 z F,,2 z F,,2 z F,,2 z | F,,2 z z3 z3!p! (F,,3 | %257
 G,,2) z z3 G,,2 z z3 | G,,2 z z3 G,,2 z z3 |!f! ^G,,2 z G,,2 z G,,2 z G,,2 z | %260
 ^G,,2 z z3 z3!p! (^G,3 | A,2) z z3 z6 | z3!f! (A,6 G,3) | (F,6 E,6) | z3 (A,,3 ^G,,3) =G,,3 | %265
 (F,,6 G,,3 ^G,,3 | A,,3) .^A,,3 .B,,3 .B,,3 |!f! A,,2 z z3 A,2 z z3 | A,2 z z3 A,2 z z3 | %269
!ff! B,6 =C6 | B,6 D,,3 D,3 | G,,2 z G,F,G, (A,G,A,) =CB,A, | (E6 .F3) .B,3 | .E3 .^A,3 D3- D2 C | %274
 C3 z3 z6 | (A,,6 .B,,3) .E,,3 | .A,,3 .D,,3 !>!G,,3- G,,2 F,, | F,,3 (A,,3 .B,,3) .E,,3 | %278
 .A,,3 .D,,3 !>!G,,3- G,,2 F,, |!p! (F,,6 G,,6 | A,,6) (A,,6 | %281
 !>!_B,,)A,,B,, B,,B,,B,, A,, z z z3 | (!>!_B,,A,,B,,) B,,B,,B,, A,, z z z3 | %283
 (!>!_B,,A,,B,,) B,,B,,B,, =B,, z z z3 | (!>!C,B,,C,) C,C,C, B,, z z z3 | (A,6 ._B,3) .E,3 | %286
 .G,3 .C,3 .E,3 .A,,3 |{F,,G,,A,,} TG,,12 |!ff! F,,6 G,,3 A,,3 | D,,2 z A,,B,,C, (D,C,D,) A,,D,E, | %290
 F,6 G,3 A,3 | D,2 z!p! A,,C,D, (E,D,E,) A,,D,E, | (F,E,F,) D,E,F, (^G,F,G,) E,A,B, | %293
 (CB,C) A,B,C (DCD) A,DE |!f! F2 z ^G,3 A,3 A,3 | !>!F6!p! !>!C6 | !>!D6 !>!B,6 | A,6 F,6 | %298
!f! D,3 G,3 A,3 G,3 | F,6 C,6 | D,3 G,,3 A,,3 A,,3 | D,,3 z3 A,,6 | C,3 E,3 A,3 C3 | D3 z3 A,,6 | %304
 C,3 E,3 A,3 C3 | D2 z!p! A,3 (G3 F2) E | (E3 D2) C (C3 B,2) A, | (A,3 ^G,2) =G, (G,3 F,2) E, | %308
 (E,3 D,2) C, C,3!ff! A,,3 | D,,3 z3 D,3 z3 | D,,3 z3 D,3 z3 | D,,3 z3 D,3 z3 |!ff! D,,6 D,,6 | %313
 D,,2 z z3 C2 z z3 | D2 z z3 A,,2 z z3 | D,,2 z z3 z6 |] %316

